svgs/thin/e.svg

<svg xmlns="http://www.w3.org/2000/svg" viewBox="0 0 320 512"><!-- Font Awesome Pro 6.0.0-alpha2 by @fontawesome - https://fontawesome.com License - https://fontawesome.com/license (Commercial License) --><path d="M320 472C320 476.406 316.422 480 312 480H8C3.578 480 0 476.406 0 472V40C0 35.594 3.578 32 8 32H312C316.422 32 320 35.594 320 40S316.422 48 312 48H16V248H248C252.422 248 256 251.594 256 256S252.422 264 248 264H16V464H312C316.422 464 320 467.594 320 472Z"/></svg>

<svg xmlns="http://www.w3.org/2000/svg" viewBox="0 0 320 512"><!--! Font Awesome Pro 6.3.0 by @fontawesome - https://fontawesome.com License - https://fontawesome.com/license (Commercial License) Copyright 2023 Fonticons, Inc. --><path d="M320 472c0 4.406-3.578 8-8 8h-304C3.578 480 0 476.4 0 472V40C0 35.59 3.578 32 8 32h304C316.4 32 320 35.59 320 40S316.4 48 312 48H16v200h232c4.422 0 8 3.6 8 8.006C256 260.4 252.4 264 248 264H16v200h296C316.4 464 320 467.6 320 472z"/></svg>
